X: 10190
T: Dinny O'Brien's
R: reel
M: 4/4
K: Dmixolydian
|:fd~d2 ABce|dcAd cAGE|DD~D2 ADFD|EGAB cdeg|
fd~d2 ABce|dcAd cAGE|DD~D2 EGAG|cAGE EDD2:|
fd (3ddd defg|ad~d2 adfa|gc (3ccc cdef|gcdc Gceg|
fd ~d2 ~A3c|dcAd cAGE|DD~D2 EGAG|cAGE EDD2|
fd (3ddd defg|ad~d2 adbc'|gc (3ccc cdef|gcdc Gceg|
fd ~d2 ABce|dcAd cAGE|DD~D2 EGAG|cAGE EDD2||

